X: 564
T: Fisher's Hornpipe
B: jims roots
M:4/4
L:1/8
R: hornpipe
Q: 1/4=100
K:Dmaj
V:1 
|: (3ABc |"D" dAFA "G" GBAG | "D" FDFD "G" GBAG | "D" FEDF "G" GBAG | "D" FGAF "A" E2 (3ABc |
"D"dAFD "G"GBAG | "D" FDFD "G" GBAG | "D" FGAd "A"cdec | "D"dBAF D2:|
|: cd |"A" ecAc egfe | "D" fdAd fagf | "A" ecAc egfe | "E"d2 B2 "A"A2 A^A |
"G" BGDG BdcB | "D" AFDF A2 A^A | "G" BGBd "A" cABc | "D"d6:|
% abcbook-tune_id 6298c25d33872239b5815f53


% abcbook-boost 0
% abcbook-tablature 
% abcbook-transpose 
% abcbook-lastupdated 1654178397982
% abcbook-soundfonts 
% abcbook-repeats 1
% ceolachan
% <a href="http://thesession.org/tunes/872#setting14048" rel="nofollow">http://thesession.org/tunes/872#setting14048</a>

